X:0
T:The Drummer or Good Morrow to your Night Cap
G:reel
S:William Campbell: New and Favourite Country Dances, book 19
M:C|
L:1/8
Q:1/2=104
K:AMin
B|ABcA E2E^F|GABc dBGB       |ABcA E2Ef|edcB A2A:|
B|c2ce d2de |c2ce d/c/B/A/ GB|c2ce d2df|edcB A2A:|
